bernoullicharts/sin_x__bits.svg

<?xml version="1.0" encoding="utf-8" standalone="no"?>
<!DOCTYPE svg PUBLIC "-//W3C//DTD SVG 1.1//EN"
  "http://www.w3.org/Graphics/SVG/1.1/DTD/svg11.dtd">
<!-- Created with matplotlib (https://matplotlib.org/) -->
<svg height="345.6pt" version="1.1" viewBox="0 0 460.8 345.6" width="460.8pt" xmlns="http://www.w3.org/2000/svg" xmlns:xlink="http://www.w3.org/1999/xlink">
 <defs>
  <style type="text/css">
*{stroke-linecap:butt;stroke-linejoin:round;}
  </style>
 </defs>
 <g id="figure_1">
  <g id="patch_1">
   <path d="M 0 345.6 
L 460.8 345.6 
L 460.8 0 
L 0 0 
z
" style="fill:#ffffff;"/>
  </g>
  <g id="axes_1">
   <g id="patch_2">
    <path d="M 57.6 307.584 
L 414.72 307.584 
L 414.72 41.472 
L 57.6 41.472 
z
" style="fill:#ffffff;"/>
   </g>
   <g id="matplotlib.axis_1">
    <g id="xtick_1">
     <g id="line2d_1">
      <defs>
       <path d="M 0 0 
L 0 3.5 
" id="m391a83991e" style="stroke:#000000;stroke-width:0.8;"/>
      </defs>
      <g>
       <use style="stroke:#000000;stroke-width:0.8;" x="73.800255" xlink:href="#m391a83991e" y="307.584"/>
      </g>
     </g>
     <g id="text_1">
      <text style="font-family:DejaVu Sans;font-size:10px;font-style:normal;font-weight:normal;text-anchor:middle;" transform="rotate(-0, 73.800255, 322.182437)" x="73.800255" y="322.182437">0.0</text>
     </g>
    </g>
    <g id="xtick_2">
     <g id="line2d_2">
      <g>
       <use style="stroke:#000000;stroke-width:0.8;" x="138.744153" xlink:href="#m391a83991e" y="307.584"/>
      </g>
     </g>
     <g id="text_2">
      <text style="font-family:DejaVu Sans;font-size:10px;font-style:normal;font-weight:normal;text-anchor:middle;" transform="rotate(-0, 138.744153, 322.182437)" x="138.744153" y="322.182437">0.2</text>
     </g>
    </g>
    <g id="xtick_3">
     <g id="line2d_3">
      <g>
       <use style="stroke:#000000;stroke-width:0.8;" x="203.688051" xlink:href="#m391a83991e" y="307.584"/>
      </g>
     </g>
     <g id="text_3">
      <text style="font-family:DejaVu Sans;font-size:10px;font-style:normal;font-weight:normal;text-anchor:middle;" transform="rotate(-0, 203.688051, 322.182437)" x="203.688051" y="322.182437">0.4</text>
     </g>
    </g>
    <g id="xtick_4">
     <g id="line2d_4">
      <g>
       <use style="stroke:#000000;stroke-width:0.8;" x="268.631949" xlink:href="#m391a83991e" y="307.584"/>
      </g>
     </g>
     <g id="text_4">
      <text style="font-family:DejaVu Sans;font-size:10px;font-style:normal;font-weight:normal;text-anchor:middle;" transform="rotate(-0, 268.631949, 322.182437)" x="268.631949" y="322.182437">0.6</text>
     </g>
    </g>
    <g id="xtick_5">
     <g id="line2d_5">
      <g>
       <use style="stroke:#000000;stroke-width:0.8;" x="333.575847" xlink:href="#m391a83991e" y="307.584"/>
      </g>
     </g>
     <g id="text_5">
      <text style="font-family:DejaVu Sans;font-size:10px;font-style:normal;font-weight:normal;text-anchor:middle;" transform="rotate(-0, 333.575847, 322.182437)" x="333.575847" y="322.182437">0.8</text>
     </g>
    </g>
    <g id="xtick_6">
     <g id="line2d_6">
      <g>
       <use style="stroke:#000000;stroke-width:0.8;" x="398.519745" xlink:href="#m391a83991e" y="307.584"/>
      </g>
     </g>
     <g id="text_6">
      <text style="font-family:DejaVu Sans;font-size:10px;font-style:normal;font-weight:normal;text-anchor:middle;" transform="rotate(-0, 398.519745, 322.182437)" x="398.519745" y="322.182437">1.0</text>
     </g>
    </g>
    <g id="text_7">
     <text style="font-family:DejaVu Sans;font-size:10px;font-style:normal;font-weight:normal;text-anchor:middle;" transform="rotate(-0, 236.16, 335.860562)" x="236.16" y="335.860562">Probability</text>
    </g>
   </g>
   <g id="matplotlib.axis_2">
    <g id="ytick_1">
     <g id="line2d_7">
      <defs>
       <path d="M 0 0 
L -3.5 0 
" id="me6d8d82753" style="stroke:#000000;stroke-width:0.8;"/>
      </defs>
      <g>
       <use style="stroke:#000000;stroke-width:0.8;" x="57.6" xlink:href="#me6d8d82753" y="290.699628"/>
      </g>
     </g>
     <g id="text_8">
      <text style="font-family:DejaVu Sans;font-size:10px;font-style:normal;font-weight:normal;text-anchor:end;" transform="rotate(-0, 50.6, 294.498847)" x="50.6" y="294.498847">2</text>
     </g>
    </g>
    <g id="ytick_2">
     <g id="line2d_8">
      <g>
       <use style="stroke:#000000;stroke-width:0.8;" x="57.6" xlink:href="#me6d8d82753" y="254.965507"/>
      </g>
     </g>
     <g id="text_9">
      <text style="font-family:DejaVu Sans;font-size:10px;font-style:normal;font-weight:normal;text-anchor:end;" transform="rotate(-0, 50.6, 258.764725)" x="50.6" y="258.764725">3</text>
     </g>
    </g>
    <g id="ytick_3">
     <g id="line2d_9">
      <g>
       <use style="stroke:#000000;stroke-width:0.8;" x="57.6" xlink:href="#me6d8d82753" y="219.231386"/>
      </g>
     </g>
     <g id="text_10">
      <text style="font-family:DejaVu Sans;font-size:10px;font-style:normal;font-weight:normal;text-anchor:end;" transform="rotate(-0, 50.6, 223.030604)" x="50.6" y="223.030604">4</text>
     </g>
    </g>
    <g id="ytick_4">
     <g id="line2d_10">
      <g>
       <use style="stroke:#000000;stroke-width:0.8;" x="57.6" xlink:href="#me6d8d82753" y="183.497264"/>
      </g>
     </g>
     <g id="text_11">
      <text style="font-family:DejaVu Sans;font-size:10px;font-style:normal;font-weight:normal;text-anchor:end;" transform="rotate(-0, 50.6, 187.296483)" x="50.6" y="187.296483">5</text>
     </g>
    </g>
    <g id="ytick_5">
     <g id="line2d_11">
      <g>
       <use style="stroke:#000000;stroke-width:0.8;" x="57.6" xlink:href="#me6d8d82753" y="147.763143"/>
      </g>
     </g>
     <g id="text_12">
      <text style="font-family:DejaVu Sans;font-size:10px;font-style:normal;font-weight:normal;text-anchor:end;" transform="rotate(-0, 50.6, 151.562362)" x="50.6" y="151.562362">6</text>
     </g>
    </g>
    <g id="ytick_6">
     <g id="line2d_12">
      <g>
       <use style="stroke:#000000;stroke-width:0.8;" x="57.6" xlink:href="#me6d8d82753" y="112.029022"/>
      </g>
     </g>
     <g id="text_13">
      <text style="font-family:DejaVu Sans;font-size:10px;font-style:normal;font-weight:normal;text-anchor:end;" transform="rotate(-0, 50.6, 115.828241)" x="50.6" y="115.828241">7</text>
     </g>
    </g>
    <g id="ytick_7">
     <g id="line2d_13">
      <g>
       <use style="stroke:#000000;stroke-width:0.8;" x="57.6" xlink:href="#me6d8d82753" y="76.294901"/>
      </g>
     </g>
     <g id="text_14">
      <text style="font-family:DejaVu Sans;font-size:10px;font-style:normal;font-weight:normal;text-anchor:end;" transform="rotate(-0, 50.6, 80.09412)" x="50.6" y="80.09412">8</text>
     </g>
    </g>
    <g id="text_15">
     <text style="font-family:DejaVu Sans;font-size:10px;font-style:normal;font-weight:normal;text-anchor:middle;" transform="rotate(-90, 38.157812, 174.528)" x="38.157812" y="174.528">Average Bits Consumed Per Call</text>
    </g>
   </g>
   <g id="line2d_14">
    <path clip-path="url(#p647a49d215)" d="M 73.832727 287.983835 
L 77.112066 290.270818 
L 80.391405 290.342287 
L 83.670744 295.488 
L 86.950083 286.483001 
L 90.229421 289.913477 
L 93.50876 286.411533 
L 96.788099 288.627049 
L 100.067438 280.193796 
L 103.346777 281.909034 
L 106.626116 286.268597 
L 109.905455 281.766097 
L 113.184793 283.767208 
L 116.464132 277.335066 
L 119.743471 278.335622 
L 123.02281 274.261932 
L 126.302149 276.334511 
L 129.581488 269.330623 
L 132.860826 272.832567 
L 136.140165 269.687965 
L 139.419504 270.474115 
L 142.698843 273.261377 
L 145.978182 269.545028 
L 149.257521 268.401536 
L 152.53686 272.33229 
L 155.816198 265.39987 
L 159.095537 264.399315 
L 162.374876 267.329513 
L 165.654215 264.256378 
L 168.933554 256.394871 
L 172.212893 250.248603 
L 175.492231 252.678523 
L 178.77157 266.686298 
L 182.050909 254.465229 
L 185.330248 261.183244 
L 188.609587 249.96273 
L 191.888926 249.748325 
L 195.168264 251.535031 
L 198.447603 243.887929 
L 201.726942 250.74888 
L 205.006281 244.531143 
L 208.28562 249.891261 
L 211.564959 245.531699 
L 214.844298 236.95551 
L 218.123636 240.671858 
L 221.402975 238.384874 
L 224.682314 224.091226 
L 227.961653 231.023645 
L 231.240992 232.381542 
L 234.520331 223.94829 
L 237.799669 225.877932 
L 241.079008 225.377654 
L 244.358347 225.734996 
L 247.637686 222.233052 
L 250.917025 214.657418 
L 254.196364 216.587061 
L 257.475702 207.65353 
L 260.755041 203.651309 
L 264.03438 199.434682 
L 267.313719 202.36488 
L 270.593058 194.074564 
L 273.872397 196.075675 
L 277.151736 198.362659 
L 280.431074 193.788691 
L 283.710413 194.217501 
L 286.989752 193.359882 
L 290.269091 189.929406 
L 293.54843 180.924408 
L 296.827769 190.000874 
L 300.107107 173.420242 
L 303.386446 166.845164 
L 306.665785 165.415799 
L 309.945124 165.701672 
L 313.224463 164.772585 
L 316.503802 154.624095 
L 319.78314 161.127705 
L 323.062479 150.550405 
L 326.341818 150.336 
L 329.621157 152.337111 
L 332.900496 141.259533 
L 336.179835 135.041796 
L 339.459174 128.252313 
L 342.738512 120.319338 
L 346.017851 127.752035 
L 349.29719 116.031244 
L 352.576529 114.030133 
L 355.855868 113.672792 
L 359.135207 114.173069 
L 362.414545 101.594659 
L 365.693884 97.806842 
L 368.973223 83.727598 
L 372.252562 94.090493 
L 375.531901 89.802399 
L 378.81124 85.442836 
L 382.090579 80.297123 
L 385.369917 70.934783 
L 388.649256 55.99792 
L 391.928595 67.075498 
L 395.207934 53.568 
L 398.487273 53.996809 
" style="fill:none;stroke:#1f77b4;stroke-linecap:square;stroke-width:1.5;"/>
   </g>
   <g id="patch_3">
    <path d="M 57.6 307.584 
L 57.6 41.472 
" style="fill:none;stroke:#000000;stroke-linecap:square;stroke-linejoin:miter;stroke-width:0.8;"/>
   </g>
   <g id="patch_4">
    <path d="M 414.72 307.584 
L 414.72 41.472 
" style="fill:none;stroke:#000000;stroke-linecap:square;stroke-linejoin:miter;stroke-width:0.8;"/>
   </g>
   <g id="patch_5">
    <path d="M 57.6 307.584 
L 414.72 307.584 
" style="fill:none;stroke:#000000;stroke-linecap:square;stroke-linejoin:miter;stroke-width:0.8;"/>
   </g>
   <g id="patch_6">
    <path d="M 57.6 41.472 
L 414.72 41.472 
" style="fill:none;stroke:#000000;stroke-linecap:square;stroke-linejoin:miter;stroke-width:0.8;"/>
   </g>
   <g id="text_16">
    <text style="font-family:DejaVu Sans;font-size:12px;font-style:normal;font-weight:normal;text-anchor:middle;" transform="rotate(-0, 236.16, 35.472)" x="236.16" y="35.472">Avg. Bits Consumed by sin(x) Algorithm</text>
   </g>
   <g id="legend_1">
    <g id="patch_7">
     <path d="M 64.6 64.150125 
L 124.646875 64.150125 
Q 126.646875 64.150125 126.646875 62.150125 
L 126.646875 48.472 
Q 126.646875 46.472 124.646875 46.472 
L 64.6 46.472 
Q 62.6 46.472 62.6 48.472 
L 62.6 62.150125 
Q 62.6 64.150125 64.6 64.150125 
z
" style="fill:#ffffff;opacity:0.8;stroke:#cccccc;stroke-linejoin:miter;"/>
    </g>
    <g id="line2d_15">
     <path d="M 66.6 54.570438 
L 86.6 54.570438 
" style="fill:none;stroke:#1f77b4;stroke-linecap:square;stroke-width:1.5;"/>
    </g>
    <g id="line2d_16"/>
    <g id="text_17">
     <text style="font-family:DejaVu Sans;font-size:10px;font-style:normal;font-weight:normal;text-anchor:start;" transform="rotate(-0, 94.6, 58.070438)" x="94.6" y="58.070438">sin(x)</text>
    </g>
   </g>
  </g>
 </g>
 <defs>
  <clipPath id="p647a49d215">
   <rect height="266.112" width="357.12" x="57.6" y="41.472"/>
  </clipPath>
 </defs>
</svg>

<svg height="460.8" viewBox="0 0 460.8 345.6" width="614.4" xmlns="http://www.w3.org/2000/svg" xmlns:xlink="http://www.w3.org/1999/xlink"><defs><style>*{stroke-linecap:butt;stroke-linejoin:round}</style></defs><g id="figure_1"><path d="M0 345.6h460.8V0H0z" fill="#fff" id="patch_1"/><g id="axes_1"><path d="M57.6 307.584h357.12V41.472H57.6z" fill="#fff" id="patch_2"/><g id="matplotlib.axis_1"><g id="xtick_1"><g id="line2d_1"><defs><path d="M0 0v3.5" id="m391a83991e" stroke="#000" stroke-width=".8"/></defs><use x="73.8" xlink:href="#m391a83991e" y="307.584" stroke="#000" stroke-width=".8"/></g><text x="73.8" y="322.182" font-family="DejaVu Sans" font-size="10" font-weight="400" text-anchor="middle" id="text_1">0.0</text></g><g id="xtick_2"><use x="138.744" xlink:href="#m391a83991e" y="307.584" stroke="#000" stroke-width=".8" id="line2d_2"/><text x="138.744" y="322.182" font-family="DejaVu Sans" font-size="10" font-weight="400" text-anchor="middle" id="text_2">0.2</text></g><g id="xtick_3"><use x="203.688" xlink:href="#m391a83991e" y="307.584" stroke="#000" stroke-width=".8" id="line2d_3"/><text x="203.688" y="322.182" font-family="DejaVu Sans" font-size="10" font-weight="400" text-anchor="middle" id="text_3">0.4</text></g><g id="xtick_4"><use x="268.632" xlink:href="#m391a83991e" y="307.584" stroke="#000" stroke-width=".8" id="line2d_4"/><text x="268.632" y="322.182" font-family="DejaVu Sans" font-size="10" font-weight="400" text-anchor="middle" id="text_4">0.6</text></g><g id="xtick_5"><use x="333.576" xlink:href="#m391a83991e" y="307.584" stroke="#000" stroke-width=".8" id="line2d_5"/><text x="333.576" y="322.182" font-family="DejaVu Sans" font-size="10" font-weight="400" text-anchor="middle" id="text_5">0.8</text></g><g id="xtick_6"><use x="398.52" xlink:href="#m391a83991e" y="307.584" stroke="#000" stroke-width=".8" id="line2d_6"/><text x="398.52" y="322.182" font-family="DejaVu Sans" font-size="10" font-weight="400" text-anchor="middle" id="text_6">1.0</text></g><text x="236.16" y="335.861" font-family="DejaVu Sans" font-size="10" font-weight="400" text-anchor="middle" id="text_7">Probability</text></g><g id="matplotlib.axis_2"><g id="ytick_1"><g id="line2d_7"><defs><path d="M0 0h-3.5" id="me6d8d82753" stroke="#000" stroke-width=".8"/></defs><use x="57.6" xlink:href="#me6d8d82753" y="290.7" stroke="#000" stroke-width=".8"/></g><text x="50.6" y="294.499" font-family="DejaVu Sans" font-size="10" font-weight="400" text-anchor="end" id="text_8">2</text></g><g id="ytick_2"><use x="57.6" xlink:href="#me6d8d82753" y="254.966" stroke="#000" stroke-width=".8" id="line2d_8"/><text x="50.6" y="258.765" font-family="DejaVu Sans" font-size="10" font-weight="400" text-anchor="end" id="text_9">3</text></g><g id="ytick_3"><use x="57.6" xlink:href="#me6d8d82753" y="219.231" stroke="#000" stroke-width=".8" id="line2d_9"/><text x="50.6" y="223.031" font-family="DejaVu Sans" font-size="10" font-weight="400" text-anchor="end" id="text_10">4</text></g><g id="ytick_4"><use x="57.6" xlink:href="#me6d8d82753" y="183.497" stroke="#000" stroke-width=".8" id="line2d_10"/><text x="50.6" y="187.296" font-family="DejaVu Sans" font-size="10" font-weight="400" text-anchor="end" id="text_11">5</text></g><g id="ytick_5"><use x="57.6" xlink:href="#me6d8d82753" y="147.763" stroke="#000" stroke-width=".8" id="line2d_11"/><text x="50.6" y="151.562" font-family="DejaVu Sans" font-size="10" font-weight="400" text-anchor="end" id="text_12">6</text></g><g id="ytick_6"><use x="57.6" xlink:href="#me6d8d82753" y="112.029" stroke="#000" stroke-width=".8" id="line2d_12"/><text x="50.6" y="115.828" font-family="DejaVu Sans" font-size="10" font-weight="400" text-anchor="end" id="text_13">7</text></g><g id="ytick_7"><use x="57.6" xlink:href="#me6d8d82753" y="76.295" stroke="#000" stroke-width=".8" id="line2d_13"/><text x="50.6" y="80.094" font-family="DejaVu Sans" font-size="10" font-weight="400" text-anchor="end" id="text_14">8</text></g><text transform="rotate(-90 38.158 174.528)" x="38.158" y="174.528" font-family="DejaVu Sans" font-size="10" font-weight="400" text-anchor="middle" id="text_15">Average Bits Consumed Per Call</text></g><path clip-path="url(#p647a49d215)" d="M73.833 287.984l3.28 2.287 3.278.071 3.28 5.146 3.28-9.005 3.278 3.43 3.28-3.501 3.28 2.215 3.278-8.433 3.28 1.715 3.28 4.36 3.278-4.503 3.28 2.001 3.28-6.432 3.278 1 3.28-4.073 3.28 2.073 3.278-7.004 3.28 3.502 3.28-3.145 3.279.786 3.279 2.787 3.28-3.716 3.279-1.143 3.279 3.93 3.28-6.932 3.279-1 3.279 2.93 3.28-3.074 3.279-7.861 3.279-6.146 3.28 2.43 3.279 14.007 3.279-12.22 3.28 6.717 3.279-11.22 3.279-.215 3.28 1.787 3.279-7.647 3.279 6.86 3.28-6.217 3.279 5.36 3.279-4.36 3.28-8.575 3.279 3.716 3.279-2.287 3.28-14.294 3.279 6.933 3.279 1.358 3.28-8.434 3.279 1.93 3.279-.5 3.28.357 3.279-3.502 3.279-7.576 3.28 1.93 3.279-8.933 3.279-4.003 3.28-4.216 3.279 2.93 3.28-8.29 3.278 2 3.28 2.288 3.28-4.574 3.278.429 3.28-.858 3.28-3.43 3.278-9.006 3.28 9.077 3.28-16.58 3.278-6.576 3.28-1.43 3.28.287 3.278-.93 3.28-10.148 3.28 6.504 3.278-10.578 3.28-.214 3.28 2.001 3.278-11.077 3.28-6.218 3.28-6.79 3.279-7.933 3.279 7.433 3.28-11.72 3.279-2.002 3.279-.357 3.28.5 3.279-12.578 3.279-3.788 3.28-14.08 3.279 10.363 3.279-4.288 3.28-4.36 3.279-5.145 3.279-9.362 3.28-14.937 3.279 11.077 3.279-13.507 3.28.429" fill="none" stroke="#1f77b4" stroke-linecap="square" stroke-width="1.5" id="line2d_14"/><path d="M57.6 307.584V41.472" fill="none" stroke="#000" stroke-linecap="square" stroke-width=".8" id="patch_3"/><path d="M414.72 307.584V41.472" fill="none" stroke="#000" stroke-linecap="square" stroke-width=".8" id="patch_4"/><path d="M57.6 307.584h357.12" fill="none" stroke="#000" stroke-linecap="square" stroke-width=".8" id="patch_5"/><path d="M57.6 41.472h357.12" fill="none" stroke="#000" stroke-linecap="square" stroke-width=".8" id="patch_6"/><text x="236.16" y="35.472" font-family="DejaVu Sans" font-size="12" font-weight="400" text-anchor="middle" id="text_16">Avg. Bits Consumed by sin(x) Algorithm</text><g id="legend_1"><path d="M64.6 64.15h60.047q2 0 2-2V48.472q0-2-2-2H64.6q-2 0-2 2V62.15q0 2 2 2z" fill="#fff" opacity=".8" stroke="#ccc" id="patch_7"/><path d="M66.6 54.57h20" fill="none" stroke="#1f77b4" stroke-linecap="square" stroke-width="1.5" id="line2d_15"/><text x="94.6" y="58.07" font-family="DejaVu Sans" font-size="10" font-weight="400" id="text_17">sin(x)</text></g></g></g><defs><clipPath id="p647a49d215"><path d="M57.6 41.472h357.12v266.112H57.6z"/></clipPath></defs></svg>
